src/16/panel/stremio-tray.svg

<svg xmlns="http://www.w3.org/2000/svg" width="16" height="16" version="1.1">
 <defs>
  <style id="current-color-scheme" type="text/css">
   .ColorScheme-Text { color:#bebebe; } .ColorScheme-Highlight { color:#5294e2; }
  </style>
 </defs>
 <path style="fill:currentColor" class="ColorScheme-Text" d="M 8 1 C 7.7733445 1 7.5471953 1.0879304 7.3730469 1.2617188 L 1.2597656 7.3730469 C 0.91216888 7.720449 0.91216887 8.2815041 1.2597656 8.6289062 L 7.3730469 14.740234 C 7.7204687 15.087635 8.2795314 15.087635 8.6269531 14.740234 L 14.740234 8.6289062 C 15.087655 8.2815041 15.087655 7.720449 14.740234 7.3730469 L 8.6269531 1.2617188 C 8.4528046 1.0879302 8.2266554 1 8 1 z M 7.8925781 4 C 8.6235781 4 9.1925625 4.1761437 9.6015625 4.5273438 C 10.012562 4.8787437 10.21875 5.3462406 10.21875 5.9316406 C 10.21875 6.4214406 10.074203 6.8322094 9.7832031 7.1621094 C 9.4922031 7.4921094 9.0761094 7.7029219 8.5371094 7.7949219 L 8.5371094 7.8261719 C 9.8181094 7.9931719 10.458984 8.6116875 10.458984 9.6796875 C 10.458984 10.399688 10.213609 10.967812 9.7246094 11.382812 C 9.2346094 11.793813 8.5275625 12 7.6015625 12 C 6.7423625 12 6.0555156 11.860078 5.5410156 11.580078 L 5.5410156 10.673828 C 6.1939156 11.014828 6.8739781 11.185547 7.5800781 11.185547 C 8.8360781 11.185547 9.4628906 10.674437 9.4628906 9.6484375 C 9.4628906 8.7334375 8.7875469 8.2734375 7.4355469 8.2734375 L 6.7285156 8.2734375 L 6.7285156 7.4707031 L 7.4355469 7.4707031 C 8.0025469 7.4707031 8.4438594 7.3364062 8.7558594 7.0664062 C 9.0678594 6.7971063 9.2246094 6.4395937 9.2246094 5.9960938 C 9.2246094 5.6341937 9.1033281 5.3480719 8.8613281 5.1386719 C 8.6203281 4.9257719 8.2965781 4.8203125 7.8925781 4.8203125 C 7.2605781 4.8203125 6.6515 5.0335906 6.0625 5.4628906 L 5.5722656 4.7988281 C 6.2357656 4.2666281 7.0085781 4 7.8925781 4 z"/>
</svg>

<svg xmlns="http://www.w3.org/2000/svg" width="16" height="16"><defs><style id="current-color-scheme" type="text/css"></style></defs><path d="M8 1a.885.885 0 0 0-.627.262L1.26 7.373a.887.887 0 0 0 0 1.256l6.113 6.111a.885.885 0 0 0 1.254 0L14.74 8.63a.887.887 0 0 0 0-1.256L8.627 1.262A.885.885 0 0 0 8 1zm-.107 3c.73 0 1.3.176 1.709.527.41.352.617.82.617 1.405 0 .49-.145.9-.436 1.23-.29.33-.707.54-1.246.633v.031c1.281.167 1.922.786 1.922 1.854 0 .72-.245 1.288-.734 1.703-.49.41-1.197.617-2.123.617-.86 0-1.546-.14-2.061-.42v-.906a4.35 4.35 0 0 0 2.04.512c1.255 0 1.882-.512 1.882-1.538 0-.915-.675-1.375-2.027-1.375h-.707v-.802h.707c.567 0 1.008-.135 1.32-.405.312-.269.469-.626.469-1.07 0-.362-.122-.648-.364-.857-.24-.213-.564-.319-.968-.319-.632 0-1.241.214-1.83.643l-.49-.664C6.235 4.267 7.008 4 7.892 4z" fill="currentColor" color="#bebebe"/></svg>
